X:1
T:Bergerette
T:Bergerette
T:(Basse dansse 4)
T:Tielman Susato
C:Tielman Susato
%%score 1 2 3 4
L:1/8
Q:1/2=210
M:4/2
K:C
V:1 treble 
V:2 treble 
V:3 treble 
V:4 treble 
V:1
"^segno" D2 E2 F2 G2 A6 G2 | A2 _B2 A4 F4 D4 | D4 A4 G6 F2 | G2 A2 G4 E4 C4 | D4 E4 F8 | %5
 F4 F4 F4 G2 A2 | G2 F2 E2 D2 E6 D2 | E2 F2 E4 E8 | D2 E2 F2 G2 A6 G2 | A2 _B2 A4 F4 D4 | %10
 D4 A4 G6 F2 | G2 A2 G4 E4 C4 | D4 E4 F4 G2 A2 | G2 F2 E2 D2 ^C2 D2 E2 D2 | ^C2 B,2 D2 C2 D6 C2 | %15
 D2 E2 D4 D8!fine! :: z4 D4 E6 D2 | E2 F2 E4 F4 E2 D2 | C2 D2 E2 F2 G6 F2 | G2 A2 G4 G8 | %20
 E2 F2 G2 A2 G4 F4 | E4 D4 C2 D2 E2 D2 | ^C2 B,2 C4 D6 C2 | D2 E2 D4 D8!D.C.! :| %24
V:2
 A,4 A,4 D8 | D4 ^C4 D4 F4 | F4 F4 E6 D2 | E2 F2 D4 C6 B,2 | A,4 C4 C8 | C4 C4 C6 B,A, | %6
 C6 A,2 C4 C4 | C4 C4 C6 B,2 | A,4 A,4 D8 | D4 ^C4 D4 F4 | F4 F4 E6 D2 | E2 F2 D4 C6 B,2 | %12
 A,4 C4 D4 D4 | D4 B,4 A,6 F,2 | A,2 B,2 A,4 F,6 G,2 | A,4 _B,4 A,8 :: z4 A,4 C6 D2 | %17
 C2 A,2 C4 C4 C4 | C6 D2 E8 | E4 D4 E6 D2 | C4 E4 D4 D4 | C2 A,4 G,2 A,4 B,4 | A,12 G,4 | %23
 A,8 B,8 :| %24
V:3
 F,4 F,4 F,6 E,2 | F,2 G,2 A,4 A,4 _B,4 | A,4 A,4 C6 A,2 | C4 B,4 A,6 G,2 | F,4 G,4 A,8 | %5
 A,4 A,4 A,4 G,2 F,2 | E,2 D,2 E,2 F,2 G,4 A,4 | G,4 G,4 G,8 | F,4 F,4 F,6 E,2 | %9
 F,2 G,2 A,4 A,4 _B,4 | A,4 A,4 C6 A,2 | C4 B,4 A,6 G,2 | F,4 G,4 A,4 B,4- | %13
 B,2 A,2 G,2 F,2 E,2 D,2 ^C,2 D,2 | E,8 D,2 ^C,2 D,2 E,2 | F,4 D,4 F,8 :: z4 F,4 G,6 G,2 | %17
 G,2 F,2 G,4 A,4 G,4 | A,4 G,2 F,2 E,4 C4- | C2 A,2 B,4 C6 B,A, | G,4 C4 B,4 A,4- | %21
 A,2 G,2 F,2 D,2 E,2 F,2 G,2 F,2 | E,2 D,2 E,4 F,4 G,4- | G,4 F,4 G,8 :| %24
V:4
 D,4 D,4 D,8 | D,4 A,,4 D,4 D,4 | D,4 F,4 C,6 D,2 | C,2 F,,2 G,,4 A,,4 A,,4 | D,4 C,4 F,,8 | %5
 F,,4 F,,4 F,,4 C,4 | C,6 D,2 C,4 A,,4 | C,4 C,4 C,8 | D,4 D,4 D,8 | D,4 A,,4 D,4 D,4 | %10
 D,4 F,4 C,6 D,2 | C,2 F,,2 G,,4 A,,4 A,,4 | D,4 C,2 E,2 D,4 G,,4 | G,,8 A,,6 _B,,2 | %14
 A,,2 G,,2 A,,4 _B,,6 A,,2 | F,,4 G,,4 D,8 :: z4 D,4 C,6 B,,2 | C,2 D,2 C,4 F,,4 C,4 | %18
 F,4 E,2 D,2 C,6 D,2 | E,2 F,2 G,4 C,8 | C,6 A,,2 B,,2 C,2 D,4 | A,,4 B,,4 A,,4 G,,4 | %22
 A,,8 D,4 G,,4 | D,8 G,,8 :| %24

